X: 105
T: No_193_Drunken_Dance_Song_(a).krn
N: Derived from No_193_Drunken_Dance_Song_(a).krn
%%abc-version 2.0
%%abcx-abcm2ps-target-version 5.9.1 (29 Sep 2008)
%%abc-creator hum2abc beta
%%abcx-conversion-date 2019/03/15 08:38:45
%%humdrum-veritas 4097249240
%%humdrum-veritas-data 889268101
%%linebreak <none>
%%barnumbers 0
L: 1/16
M: 3/4
K: G clef=bass
[K:clef=bass][M:3/4]F,D,D,2 (G,F,) z2 G,D,3 ||  
[M:2/4]G,G,G,2 F,F, z2 | 
G,4z2 D,D, ||  
[M:3/4](3G,2G,2F,2 A,G,3- G,2 z G, ||  
[M:2/4]G,3G, G,3F, | 
G,4z2 D,D, | 
D,3B, (3(B,5/8F,2)A,2 | 
G,4z3 G, | 
G,3A, G,3F, | 
G,4z3 D, | 
D,3G, (3(G,5/8F,2)A,2 | 
G,4z2 G,G, | 
G,3A, G,3F, | 
G,4z3 D, | 
D,3G, G,3D, | 
D,6G,G, | 
G,3A, G,3D, | 
D,4z3 D, | 
D,3G, G,3D, | 
D,6G,G, | 
G,3A, G,3D, | 
D,4z3 D, | 
D,3G, G,3D, | 
D,6G,G, | 
G,3A, G,3D, | 
D,4z4 |]  



